
float my_function(float in ){
    return abs(sin(M_PI*in));
}
shader bulge(
    point UV = color(u,v,0),
    color A = 0,
    color B = 1,
    float Scale = 1.0,
    output color Result = 0
)
{
    point pnt = UV / Scale;

    float f = my_function(pnt[0]) * my_function(pnt[1]);
    // NOTE blend A B color 
    Result = mix(A,B,clamp(f,0,1));
}