shader CameraMap_geo(
    float blur_val = 0,
    string filename = "Camera",
    output color col = 0)
{
    vector p = transform("camera", P);
    float fov;
    int res[2];
    getattribute("camera:fov", fov);
    getattribute("camera:resolution", res);
    float x = 0.5 - 0.5 * p[0] / p[2] / tan(fov / 2) ;
    float y = 0.5 - 0.5 * p[1] / p[2] / tan(fov / 2) * res[0] / res[1];
    col = texture(filename,x,y);
}