shader
colorByDist(float cycle = 1,
            float satuation = 1,
            float value = 1,
            float cutoff = 0.5,
            output color resultRGB = 0,
            output float resultF = 0)
{
point p = transform("world", P);
point origin = point(0, 0, 0);
float dist = distance (p, origin);
float grayscale = luminance(resultRGB);
 
resultRGB = color ("hsv", dist/cycle, satuation, value);
resultF = (grayscale < cutoff) ? 1:0;
} 