shader facingratio_cam(
    float cam_weight = 0,
    output closure color result = 0.0
){
    // NOTE 获取摄像机的位置
    point camera_pos = point("camera", 0, 0, 0);
    dot(normalize(camera_pos - P), N)
    result = diffuse(N) * (1-cam_weight) + diffuse(N) * cam_weight * dot(normalize(camera_pos - P), N);
}
